src/actions/24/format-text-bold.svg

<svg xmlns="http://www.w3.org/2000/svg" viewBox="0 0 24 24">
  <defs id="defs3051">
    <style type="text/css" id="current-color-scheme">
      .ColorScheme-Text {
        color:#363636;
      }
      </style>
  </defs>
 <path style="fill:currentColor;fill-opacity:1;stroke:none" 
     d="M 4.5 4 C 4.3286269 4 4.1646509 4.0248281 4 4.0488281 L 4 6 C 5.108 6 6 6.892 6 8 L 6 11 L 6 16 C 6 17.108 5.108 18 4 18 L 4 19.951172 C 4.1646509 19.975172 4.3286269 20 4.5 20 L 6 20 L 10 20 L 15 20 C 17.769995 20 20 17.77 20 15 C 20 12.7951 18.577117 10.953356 16.603516 10.285156 C 17.447639 9.6468564 18 8.6443 18 7.5 C 18 5.561 16.439 4 14.5 4 L 10 4 L 6 4 L 4.5 4 z M 10 6 L 12 6 C 13.108 6 14 6.892 14 8 C 14 9.108 13.108 10 12 10 L 10 10 L 10 6 z M 10 12 L 13 12 C 14.662 12 16 13.338 16 15 C 16 16.662 14.662 18 13 18 L 10 18 L 10 12 z "
     class="ColorScheme-Text"
     />
</svg>

<svg xmlns="http://www.w3.org/2000/svg" viewBox="0 0 24 24">
    <path d="M4.5 4c-.171 0-.335.025-.5.049V6c1.108 0 2 .892 2 2v8c0 1.108-.892 2-2 2v1.951c.165.024.329.049.5.049H15c2.77 0 5-2.23 5-5 0-2.205-1.423-4.047-3.396-4.715A3.492 3.492 0 0 0 14.5 4h-10zM10 6h2c1.108 0 2 .892 2 2s-.892 2-2 2h-2V6zm0 6h3c1.662 0 3 1.338 3 3s-1.338 3-3 3h-3v-6z" style="fill:currentColor;fill-opacity:1;stroke:none;color:#050505;opacity:.7"/>
</svg>
